color_toolbox/1.1_real.sp
SPECT  

DESCRIPTOR "Argyll Spectral power/reflectance information"
ORIGINATOR "Argyll CMS"
CREATED "Wed Sep 18 13:56:29 2024"
MEAS_TYPE "REFLECTIVE"
MEAS_CONDITIONS "CUSTOM"
SPECTRAL_BANDS "36"
SPECTRAL_START_NM "380.000000"
SPECTRAL_END_NM "730.000000"
SPECTRAL_NORM "100.000000"

NUMBER_OF_FIELDS 36
BEGIN_DATA_FORMAT
SPEC_380 SPEC_390 SPEC_400 SPEC_410 SPEC_420 SPEC_430 SPEC_440 SPEC_450 SPEC_460 SPEC_470 SPEC_480 SPEC_490 SPEC_500 SPEC_510 SPEC_520 SPEC_530 SPEC_540 SPEC_550 SPEC_560 SPEC_570 SPEC_580 SPEC_590 SPEC_600 SPEC_610 SPEC_620 SPEC_630 SPEC_640 SPEC_650 SPEC_660 SPEC_670 SPEC_680 SPEC_690 SPEC_700 SPEC_710 SPEC_720 SPEC_730 
END_DATA_FORMAT

NUMBER_OF_SETS 1
BEGIN_DATA
68.76560 68.76555 68.76548 68.76542 68.76510 69.64564 70.09295 70.65109 71.12493 71.44886 71.88555 72.36288 72.74584 73.23754 73.94414 74.36575 74.76292 75.17028 75.51142 76.38710 76.90055 77.30741 77.53673 77.64456 77.69350 77.77516 78.05822 78.39939 78.74673 78.79980 78.68900 78.54663 78.77237 78.80755 79.00379 79.18694 
END_DATA
