color_toolbox/1.2_real.sp
SPECT  

DESCRIPTOR "Argyll Spectral power/reflectance information"
ORIGINATOR "Argyll CMS"
CREATED "Wed Sep 18 13:56:55 2024"
MEAS_TYPE "REFLECTIVE"
MEAS_CONDITIONS "CUSTOM"
SPECTRAL_BANDS "36"
SPECTRAL_START_NM "380.000000"
SPECTRAL_END_NM "730.000000"
SPECTRAL_NORM "100.000000"

NUMBER_OF_FIELDS 36
BEGIN_DATA_FORMAT
SPEC_380 SPEC_390 SPEC_400 SPEC_410 SPEC_420 SPEC_430 SPEC_440 SPEC_450 SPEC_460 SPEC_470 SPEC_480 SPEC_490 SPEC_500 SPEC_510 SPEC_520 SPEC_530 SPEC_540 SPEC_550 SPEC_560 SPEC_570 SPEC_580 SPEC_590 SPEC_600 SPEC_610 SPEC_620 SPEC_630 SPEC_640 SPEC_650 SPEC_660 SPEC_670 SPEC_680 SPEC_690 SPEC_700 SPEC_710 SPEC_720 SPEC_730 
END_DATA_FORMAT

NUMBER_OF_SETS 1
BEGIN_DATA
19.49571 19.49206 19.48814 19.48392 19.48006 20.57339 21.78265 22.77913 23.42706 23.78831 24.27111 25.14381 26.25599 27.36961 28.49698 29.42840 30.07456 30.25100 29.87782 29.32744 28.38746 27.14606 25.63059 24.28996 23.43117 22.89879 22.53747 22.29069 22.38308 22.73843 23.10660 23.35368 23.58287 23.48086 23.21471 23.18138 
END_DATA
