color_toolbox/1.2_imaged.sp
SPECT  

DESCRIPTOR "Argyll Spectral power/reflectance information"
ORIGINATOR "Argyll CMS"
CREATED "Wed Sep 18 14:04:19 2024"
MEAS_TYPE "TRANSMISSIVE"
SPECTRAL_BANDS "36"
SPECTRAL_START_NM "380.000000"
SPECTRAL_END_NM "730.000000"
SPECTRAL_NORM "100.000000"

NUMBER_OF_FIELDS 36
BEGIN_DATA_FORMAT
SPEC_380 SPEC_390 SPEC_400 SPEC_410 SPEC_420 SPEC_430 SPEC_440 SPEC_450 SPEC_460 SPEC_470 SPEC_480 SPEC_490 SPEC_500 SPEC_510 SPEC_520 SPEC_530 SPEC_540 SPEC_550 SPEC_560 SPEC_570 SPEC_580 SPEC_590 SPEC_600 SPEC_610 SPEC_620 SPEC_630 SPEC_640 SPEC_650 SPEC_660 SPEC_670 SPEC_680 SPEC_690 SPEC_700 SPEC_710 SPEC_720 SPEC_730 
END_DATA_FORMAT

NUMBER_OF_SETS 1
BEGIN_DATA
26.43649 25.26680 24.01528 26.19938 22.54118 21.76932 21.66027 21.86701 22.06875 22.89072 24.38232 25.17085 25.52800 25.82683 26.13982 26.51763 27.09314 27.53136 27.95008 27.82494 26.69751 25.53176 25.03018 24.53519 23.98724 23.60380 23.48135 23.36697 23.26539 23.36648 23.65687 23.88410 24.25218 24.67552 25.50823 26.49663 
END_DATA
