color_toolbox/disp_model_test.ti1
CTI1

COLOR_REP "RGB"

NUMBER_OF_FIELDS 4
BEGIN_DATA_FORMAT
SAMPLE_ID RGB_R RGB_G RGB_B
END_DATA_FORMAT

NUMBER_OF_SETS 30
BEGIN_DATA
1	45	32	26
2	75	61	53
3	40	49	62
4	36	43	28
5	51	52	69
6	48	76	70
7	82	52	25
8	30	37	64
9	74	37	40
10	35	24	40
11	64	74	32
12	88	66	27
13	20	25	57
14	35	59	31
15	67	24	26
16	93	80	29
17	71	37	58
18	15	53	64
19	95	96	98
20	79	79	80
21	64	65	65
22	48	49	48
23	34	33	33
24	20	20	20
25	0	0	0
26	0	0	0
27	0	0	0
28	100	100	100
29	100	100	100
30	100	100	100
END_DATA
