color_toolbox/disp_model_test.ti3
CTI3   

DESCRIPTOR "Argyll Calibration Target chart information 3"
ORIGINATOR "Argyll dispread"
CREATED "Thu Nov 21 11:52:25 2024"
DEVICE_CLASS "DISPLAY"
COLOR_REP "RGB_XYZ"
TARGET_INSTRUMENT "X-Rite ColorMunki"
DISPLAY_TYPE_REFRESH "YES"
INSTRUMENT_TYPE_SPECTRAL "YES"
LUMINANCE_XYZ_CDM2 "230.851236 258.071334 142.423584"
NORMALIZED_TO_Y_100 "YES"

NUMBER_OF_FIELDS 7
BEGIN_DATA_FORMAT
SAMPLE_ID RGB_R RGB_G RGB_B XYZ_X XYZ_Y XYZ_Z 
END_DATA_FORMAT

NUMBER_OF_SETS 30
BEGIN_DATA
1 45.00000 32.00000 26.00000 10.64735 9.680008 3.554589 
2 75.00000 61.00000 53.00000 36.52803 35.17967 13.94396 
3 40.00000 49.00000 62.00000 14.57451 17.28562 18.24452 
4 36.00000 43.00000 28.00000 9.413993 12.39027 4.289798 
5 51.00000 52.00000 69.00000 20.67605 21.76582 22.94097 
6 48.00000 76.00000 70.00000 28.16367 42.73965 25.00946 
7 82.00000 52.00000 25.00000 37.94966 30.26490 3.948650 
8 30.00000 37.00000 64.00000 9.910124 10.13681 18.85316 
9 74.00000 37.00000 40.00000 28.61631 19.28415 7.477325 
10 35.00000 24.00000 40.00000 7.292731 6.176667 7.157353 
11 64.00000 74.00000 32.00000 32.03257 43.08704 6.866773 
12 88.00000 66.00000 27.00000 48.49302 43.93815 5.053488 
13 20.00000 25.00000 57.00000 6.057073 5.722083 14.74692 
14 35.00000 59.00000 31.00000 13.43185 22.53318 5.516629 
15 67.00000 24.00000 26.00000 21.13758 12.81108 3.433567 
16 93.00000 80.00000 29.00000 59.87933 61.80107 6.389861 
17 71.00000 37.00000 58.00000 27.74268 18.70927 15.60695 
18 15.00000 53.00000 64.00000 10.82047 17.44868 19.35302 
19 95.00000 96.00000 98.00000 80.73681 90.23217 52.49580 
20 79.00000 79.00000 80.00000 50.33504 55.77175 33.09223 
21 64.00000 65.00000 65.00000 31.01164 34.77066 20.69030 
22 48.00000 49.00000 48.00000 16.23410 18.18984 11.07238 
23 34.00000 33.00000 33.00000 7.674721 8.393497 5.342641 
24 20.00000 20.00000 20.00000 3.124282 3.515555 2.053122 
25 0.00000 0.00000 0.00000 0.132956 0.116567 0.313941 
26 0.00000 0.00000 0.00000 0.131848 0.115396 0.313398 
27 0.00000 0.00000 0.00000 0.130640 0.114454 0.311459 
28 100.0000 100.0000 100.0000 89.45249 100.0000 55.18768 
29 100.0000 100.0000 100.0000 89.45489 100.0093 55.18817 
30 100.0000 100.0000 100.0000 89.44964 99.99956 55.20930 
END_DATA
