color_toolbox/ramps_plus.ti3
CTI3   

DESCRIPTOR "Argyll Calibration Target chart information 3"
ORIGINATOR "Argyll dispread"
CREATED "Thu Nov  7 12:02:47 2024"
DEVICE_CLASS "DISPLAY"
SINGLE_DIM_STEPS "11"
COMP_GREY_STEPS "11"
COLOR_REP "RGB_XYZ"
TARGET_INSTRUMENT "X-Rite ColorMunki"
DISPLAY_TYPE_REFRESH "YES"
INSTRUMENT_TYPE_SPECTRAL "YES"
LUMINANCE_XYZ_CDM2 "261.141172 282.687766 231.036435"
NORMALIZED_TO_Y_100 "YES"

NUMBER_OF_FIELDS 7
BEGIN_DATA_FORMAT
SAMPLE_ID RGB_R RGB_G RGB_B XYZ_X XYZ_Y XYZ_Z 
END_DATA_FORMAT

NUMBER_OF_SETS 47
BEGIN_DATA
1 100.0000 100.0000 100.0000 92.37795 100.0000 81.72849 
2 0.00000 20.00000 0.00000 1.003800 2.356801 0.409187 
3 20.00000 20.00000 20.00000 3.088835 3.335479 2.801968 
4 0.00000 0.00000 0.00000 0.119125 0.104692 0.277246 
5 0.00000 0.00000 90.00000 11.46010 4.145937 60.02110 
6 0.00000 0.00000 100.0000 14.53883 5.220945 76.27404 
7 0.00000 0.00000 0.00000 0.119468 0.104914 0.277813 
8 0.00000 0.00000 10.00000 0.219946 0.139709 0.819363 
9 10.00000 10.00000 10.00000 0.851622 0.904909 0.858076 
10 20.00000 0.00000 0.00000 1.686799 0.849725 0.279258 
11 30.00000 0.00000 0.00000 3.620963 1.763310 0.275054 
12 40.00000 0.00000 0.00000 6.351768 3.062412 0.287622 
13 10.00000 0.00000 0.00000 0.522378 0.295091 0.282255 
14 50.00000 0.00000 0.00000 10.84501 5.197693 0.303685 
15 60.00000 0.00000 0.00000 15.78777 7.546650 0.306029 
16 70.00000 0.00000 0.00000 22.40215 10.69156 0.324813 
17 80.00000 0.00000 0.00000 30.47024 14.51863 0.326079 
18 100.0000 0.00000 0.00000 51.07140 24.29641 0.340613 
19 90.00000 0.00000 0.00000 40.00851 19.03817 0.334629 
20 100.0000 100.0000 100.0000 94.31574 102.0864 84.62642 
21 0.00000 30.00000 0.00000 2.140269 5.241418 0.624616 
22 0.00000 40.00000 0.00000 3.666991 9.149191 0.846555 
23 0.00000 50.00000 0.00000 5.967089 15.02891 1.165632 
24 0.00000 60.00000 0.00000 8.726285 22.09332 1.549880 
25 0.00000 70.00000 0.00000 12.41837 31.55362 2.068911 
26 0.00000 80.00000 0.00000 16.87180 42.95209 2.718874 
27 0.00000 90.00000 0.00000 21.93673 55.88410 3.470952 
28 0.00000 0.00000 50.00000 3.322313 1.251493 17.15049 
29 0.00000 0.00000 20.00000 0.568297 0.263139 2.672875 
30 0.00000 0.00000 40.00000 2.120764 0.820395 10.83575 
31 0.00000 0.00000 60.00000 4.875778 1.794617 25.38280 
32 0.00000 0.00000 0.00000 0.114953 0.0993327 0.283933 
33 100.0000 100.0000 100.0000 95.13297 103.0332 85.69708 
34 0.00000 10.00000 0.00000 0.342381 0.678675 0.317054 
35 0.00000 0.00000 0.00000 0.112766 0.0976535 0.281143 
36 0.00000 100.0000 0.00000 28.72950 73.39644 4.483401 
37 100.0000 100.0000 100.0000 95.24100 103.1373 85.71755 
38 0.00000 0.00000 70.00000 6.765373 2.462973 35.35039 
39 0.00000 0.00000 80.00000 9.003566 3.255033 47.14470 
40 0.00000 0.00000 30.00000 1.195918 0.485716 5.982349 
41 30.00000 30.00000 30.00000 7.010950 7.565988 6.491728 
42 40.00000 40.00000 40.00000 12.45960 13.37615 11.73283 
43 50.00000 50.00000 50.00000 20.51003 21.99106 18.63268 
44 60.00000 60.00000 60.00000 29.95577 32.15347 27.42881 
45 70.00000 70.00000 70.00000 42.41038 45.67137 38.26810 
46 80.00000 80.00000 80.00000 57.21183 61.74384 51.02874 
47 90.00000 90.00000 90.00000 74.73859 80.20045 67.07942 
END_DATA
