color_toolbox/workflow_test_uncal.ti3
CTI3   

DESCRIPTOR "Argyll Calibration Target chart information 3"
ORIGINATOR "Argyll dispread"
CREATED "Wed Dec  4 17:48:32 2024"
DEVICE_CLASS "DISPLAY"
COLOR_REP "RGB_XYZ"
TARGET_INSTRUMENT "X-Rite ColorMunki"
DISPLAY_TYPE_REFRESH "YES"
INSTRUMENT_TYPE_SPECTRAL "YES"
LUMINANCE_XYZ_CDM2 "269.285236 292.358229 230.580970"
NORMALIZED_TO_Y_100 "YES"

NUMBER_OF_FIELDS 7
BEGIN_DATA_FORMAT
SAMPLE_ID RGB_R RGB_G RGB_B XYZ_X XYZ_Y XYZ_Z 
END_DATA_FORMAT

NUMBER_OF_SETS 30
BEGIN_DATA
1 33.00000 18.00000 11.00000 5.232652 4.090480 1.044220 
2 77.00000 57.00000 47.00000 37.91065 33.72222 15.56902 
3 34.00000 44.00000 61.00000 13.78098 15.05138 25.63010 
4 27.00000 34.00000 14.00000 5.686100 8.013540 1.749532 
5 49.00000 49.00000 69.00000 21.92000 21.20878 33.11844 
6 43.00000 74.00000 65.00000 27.02477 40.95263 30.75141 
7 78.00000 41.00000 11.00000 32.26913 23.15153 1.497531 
8 12.00000 22.00000 59.00000 6.094304 4.724148 22.97627 
9 77.00000 27.00000 31.00000 30.14186 17.66135 6.192091 
10 20.00000 5.000000 25.00000 2.463659 1.239816 4.002833 
11 65.00000 77.00000 16.00000 34.00655 47.35397 4.026269 
12 87.00000 64.00000 18.00000 46.81278 42.65548 3.646390 
13 2.000000 2.000000 44.00000 2.398035 0.934966 12.18592 
14 23.00000 49.00000 17.00000 7.969514 15.12621 2.703092 
15 65.00000 8.000000 11.00000 19.01546 9.381987 0.970167 
16 93.00000 80.00000 18.00000 59.49545 62.72042 4.680152 
17 73.00000 25.00000 55.00000 29.55163 16.64612 19.93570 
18 4.000000 44.00000 60.00000 8.889598 12.69042 24.35827 
19 86.00000 85.00000 84.00000 63.75589 68.33203 52.63169 
20 74.00000 74.00000 73.00000 46.15060 50.02438 38.58308 
21 60.00000 59.00000 58.00000 28.23360 30.06363 23.60628 
22 40.00000 40.00000 39.00000 11.88546 12.87344 10.18633 
23 17.00000 18.00000 18.00000 2.385932 2.700095 2.248012 
24 2.000000 3.000000 6.000000 0.171304 0.155363 0.436925 
25 0.00000 0.00000 0.00000 0.121856 0.107125 0.281897 
26 0.00000 0.00000 0.00000 0.121208 0.106500 0.281456 
27 0.00000 0.00000 0.00000 0.122264 0.107768 0.282639 
28 100.0000 100.0000 100.0000 92.10797 100.0000 78.86933 
29 100.0000 100.0000 100.0000 92.12145 100.0090 78.88968 
30 100.0000 100.0000 100.0000 92.13976 100.0347 78.90834 
END_DATA
