color_toolbox/workflow_test_cal.ti3
CTI3   

DESCRIPTOR "Argyll Calibration Target chart information 3"
ORIGINATOR "Argyll dispread"
CREATED "Wed Dec  4 17:57:36 2024"
DEVICE_CLASS "DISPLAY"
COLOR_REP "RGB_XYZ"
TARGET_INSTRUMENT "X-Rite ColorMunki"
DISPLAY_TYPE_REFRESH "YES"
INSTRUMENT_TYPE_SPECTRAL "YES"
LUMINANCE_XYZ_CDM2 "236.103366 256.511347 212.933397"
NORMALIZED_TO_Y_100 "YES"

NUMBER_OF_FIELDS 7
BEGIN_DATA_FORMAT
SAMPLE_ID RGB_R RGB_G RGB_B XYZ_X XYZ_Y XYZ_Z 
END_DATA_FORMAT

NUMBER_OF_SETS 30
BEGIN_DATA
1 44.00000 36.00000 26.00000 11.93846 11.76137 5.115337 
2 78.00000 62.00000 53.00000 41.63308 39.00544 21.21040 
3 43.00000 51.00000 64.00000 19.69144 21.68158 30.46373 
4 40.00000 45.00000 30.00000 12.45885 15.66756 6.833733 
5 53.00000 52.00000 70.00000 25.67936 25.07527 36.69742 
6 48.00000 76.00000 70.00000 31.46662 45.21942 37.99589 
7 80.00000 48.00000 17.00000 35.78690 28.23759 2.887120 
8 28.00000 38.00000 63.00000 11.77988 11.74359 28.87984 
9 76.00000 39.00000 42.00000 32.57258 22.43462 12.72473 
10 36.00000 24.00000 42.00000 8.821109 6.681329 12.26897 
11 64.00000 75.00000 31.00000 33.67354 45.86918 8.593670 
12 88.00000 67.00000 25.00000 48.89790 46.27470 6.035563 
13 14.00000 18.00000 54.00000 5.493389 3.807356 20.33619 
14 34.00000 55.00000 31.00000 13.10177 21.20944 7.395700 
15 69.00000 24.00000 27.00000 23.60378 13.90959 5.153717 
16 93.00000 80.00000 31.00000 59.91589 63.21723 8.931526 
17 70.00000 35.00000 58.00000 29.45740 19.27269 24.08281 
18 17.00000 52.00000 64.00000 13.24191 19.17117 30.09740 
19 96.00000 96.00000 98.00000 82.13211 88.34766 76.42284 
20 78.00000 78.00000 79.00000 52.67788 56.86482 47.90504 
21 62.00000 64.00000 63.00000 32.46087 35.76375 30.14566 
22 46.00000 49.00000 49.00000 17.62830 19.73403 17.49978 
23 35.00000 37.00000 36.00000 9.614881 10.72766 9.265995 
24 18.00000 19.00000 15.00000 2.485208 2.906351 1.694245 
25 0.00000 0.00000 0.00000 0.119309 0.102382 0.292925 
26 0.00000 0.00000 0.00000 0.121041 0.103563 0.295092 
27 0.00000 0.00000 0.00000 0.119709 0.102897 0.293452 
28 100.0000 100.0000 100.0000 92.04402 100.0000 83.01130 
29 100.0000 100.0000 100.0000 92.05048 100.0000 83.03414 
30 100.0000 100.0000 100.0000 92.04504 99.99685 83.02551 
END_DATA
