color_toolbox/workflow_test_cal.ti1
CTI1

COLOR_REP "RGB"

NUMBER_OF_FIELDS 4
BEGIN_DATA_FORMAT
SAMPLE_ID RGB_R RGB_G RGB_B
END_DATA_FORMAT

NUMBER_OF_SETS 30
BEGIN_DATA
1	44	36	26
2	78	62	53
3	43	51	64
4	40	45	30
5	53	52	70
6	48	76	70
7	80	48	17
8	28	38	63
9	76	39	42
10	36	24	42
11	64	75	31
12	88	67	25
13	14	18	54
14	34	55	31
15	69	24	27
16	93	80	31
17	70	35	58
18	17	52	64
19	96	96	98
20	78	78	79
21	62	64	63
22	46	49	49
23	35	37	36
24	18	19	15
25	0	0	0
26	0	0	0
27	0	0	0
28	100	100	100
29	100	100	100
30	100	100	100
END_DATA
